!!!COM:	Bach, Johann Sebastian
!!!CDT:	1685/02/21/-1750/07/28/
!!!OTL@@DE:	O Gott, du frommer Gott
!!!SCT:	BWV 45/7
!!!PC#:	85
!!!AGN:	chorale
**kern	**kern	**kern	**kern
*ICvox	*ICvox	*ICvox	*ICvox
*Ibass	*Itenor	*Ialto	*Isoprn
*I"Bass	*I"Tenor	*I"Alto	*I"Soprano
*clefF4	*clefGv2	*clefG2	*clefG2
*k[f#c#g#d#]	*k[f#c#g#d#]	*k[f#c#g#d#]	*k[f#c#g#d#]
*E:	*E:	*E:	*E:
*M4/4	*M4/4	*M4/4	*M4/4
*met(c)	*met(c)	*met(c)	*met(c)
*MM100	*MM100	*MM100	*MM100
4EE	8G#L	4e	4b
.	8AJ	.	.
=1	=1	=1	=1
4E	4B	4e	4g#
4F#	4A	4d#	8f#L
.	.	.	8eJ
4G#	4B	8eL	4b
.	.	8f#J	.
8F#L	4e	4g#	4b
8EJ	.	.	.
=2	=2	=2	=2
2A;	2e;	2a;	2cc#;
4r	4ry	4ry	4r
4A#	4c#	8f#L	4cc#
.	.	8eJ	.
=3	=3	=3	=3
4B	4B	8d#L	4f#
.	.	8c#J	.
4AnX	4B	4d#	4f#
4G#	4B	4e	4b
4D#	4B	4f#	4a
=4	=4	=4	=4
4E	4.B	4e	4g#
4BB	.	4d#	4f#
.	8A	.	.
4EE;	4G#;	4B;	4e;
4G#	4B	4e	4b
=5	=5	=5	=5
4A	8AL	4e	4cc#
.	8c#J	.	.
4F#	8f#L	4a	4cc#
.	8eJ	.	.
4B	8d#L	8aL	4b
.	8eJ	8g#J	.
4BB	8eL	4f#	4a
.	8d#J	.	.
=6	=6	=6	=6
2E;	2B;	2e;	2g#;
4r	4ry	4ry	4r
4D#	4B	4f#	4f#
=7	=7	=7	=7
4E	4B	4f#	4g#
4C#	4c#	4e	4a#
4D#	8F#L	4f#	4b
.	8BJ	.	.
4E	4B	4g#	4cc#
=8	=8	=8	=8
4F#	4B	2f#	4dd#
4FF#	4A#	.	8cc#L
.	.	.	8bJ
4BB;	4F#;	4d#;	4b;
4D#	8BL	4f#	4b
.	8AJ	.	.
=9	=9	=9	=9
8EL	8G#L	4e	4b
8D#J	8F#J	.	.
8EL	8G#L	4e	4b
8F#J	8AJ	.	.
4G#	4B	8eL	4ee
.	.	8f#J	.
8F#L	4e	4g#	4dd
8EJ	.	.	.
=10	=10	=10	=10
2A;	2e;	2a;	2cc#;
4r	4ry	4ry	4r
8AL	4e	4a	4cc#
8G#J	.	.	.
=11	=11	=11	=11
4F#	4f#	4a	4cc#
4E	4c#	4a#	4cc#
4D#	4d#	4b	4ff#
4C#	4e	8bL	4ee
.	.	8a#J	.
=12	=12	=12	=12
2BB;	2f#;	2b;	2dd#;
4ry	4r	4ry	4r
4G#	4e	4b	4b
=13	=13	=13	=13
4A	4e	4a	4cc#
4G#	4e	4b	4b
4F#	4A	8bL	4cc#
.	.	8aJ	.
4BB	8BL	8g#L	4dd#
.	8AJ	8f#J	.
=14	=14	=14	=14
2C#;	2G#;	2e;	2ee;
4ry	4r	4ry	4r
4D#	8F#L	4f#	4b
.	16G#L	.	.
.	16AJJ	.	.
=15	=15	=15	=15
8EL	4G#	4e	4b
8D#	.	.	.
8C#	8AL	4e	8aL
8BBJ	8BJ	.	8g#J
4AA	4c#	4e	4f#
4BB	8BL	4d#	4f#
.	8AJ	.	.
=16	=16	=16	=16
2.EE;	2.G#;	2.B;	2.e;
==	==	==	==
*-	*-	*-	*-
!!!hum2abc: -Q ''
!!!title: @{PC#}. @{OTL@@DE}
!!!YOR1: 371 vierstimmige Choralges&auml;nge von Johann Sebastian Bach, 
!!!YOR2: 4th ed. by Alfred D&ouml;rffel (Leipzig: Breitkopf und H&auml;rtel, 
!!!YOR2: c.1875). 178 pp. Plate "V.A.10".  reprint: J.S. Bach, 371 Four-Part 
!!!YOR4: Chorales (New York: Associated Music Publishers, Inc., c.1940).
!!!SMS: B&H, 4th ed, Alfred D&ouml;rffel, c.1875, plate V.A.10
!!!EED:  Craig Stuart Sapp
!!!EEV:  2009/05/22
